!!!!SEGMENT: pl-kk--kk-i-3--016-001_anonim--de-eclecta-sanctus.krn
!!!cenid: 15xx:621
!!!COM: Anonim
!!!COM-rismID: pe30004985
!!!CDT:
!!!CNT:
!!!OPR: De eclecta
!!!OTL: Sanctus
!!!OMV: 001
!!!PDT:
!!!AGN:
!!!SMS-siglum: PL-Kk
!!!SMS-shelfmark: Kk.I.3
!!!SMS-shelfwork: 016-001 M
!!!SMS-variant:
!!!SMS-altvar:
!!!NIFC-rismSourceID: 1001145493
!!!NIFC-rismChildID: 1001145493
!!!NIFC-islandoraID: pl-kk:1170
!!!URL-pdf-islandora: https://repozytorium.nifc.pl/islandora/object/pl-kk%3A1170/datastream/PDF/view
!!!URL-scan: https://polish.musicsources.pl/pl/lokalizacje/galeria/rekopisy/5919 @EN{Scan on Polish Music Sources Website} @PL{Skany w portalu Dziedzictwo Muzyki Polskiej w otwartym dostępie}
!!!ONB-nifc: UWAGA: Discantus (s. 71v-72r, skan 0074), Tenor (s. 49v-50r, skan 0222), Bassus (s. 67r-v, skan 0370-0371). Następna część: Benedictus
!!!AIN: 1 bass 1 empty 1 tenor
!!!key:
**kern	**text	**kern	**text	**kern	**text
*part3	*part3	*part2	*part2	*part1	*part1
*staff3	*staff3	*staff2	*staff2	*staff1	*staff1
*Ibass	*	*Itenor	*	*Iempty	*
*I"Bassus	*	*I"Tenore	*	*I"Discantus	*
*I'B	*	*I'T.	*	*I'D	*
*clefF4	*	*clefC4	*	*clefC3	*
*k[]	*	*k[]	*	*k[]	*
*d:	*	*d:	*	*d:	*
*M2/1	*	*M2/1	*	*M2/1	*
=1-	=1-	=1-	=1-	=1-	=1-
*2\right	*	*2\right	*	*2\right	*
*lig	*	*lig	*	*lig	*
!LO:TX:t=P:problem=w źródle nad pięciolinią adnotacja "A .t.d.s"	!	!	!	!	!
1D	San-	1D	San-	1d	San-
1AA	.	1E	.	1c	.
*Xlig	*	*Xlig	*	*Xlig	*
=2-	=2-	=2-	=2-	=2-	=2-
*lig	*	*lig	*	*lig	*
1D	.	1F	.	1d	.
1AA	.	1E	.	1e	.
*Xlig	*	*Xlig	*	*Xlig	*
=3-	=3-	=3-	=3-	=3-	=3-
*lig	*	*lig	*	*lig	*
1A	.	1F	.	1c	.
1F	.	1D	.	1d	.
*Xlig	*	*Xlig	*	*Xlig	*
=4-	=4-	=4-	=4-	=4-	=4-
*	*	*lig	*	*lig	*
1F	.	1A	.	1c	.
*lig	*	*	*	*	*
1D	.	1F	.	1d	.
*	*	*Xlig	*	*Xlig	*
=5-	=5-	=5-	=5-	=5-	=5-
*	*	*lig	*	*lig	*
!LO:TX:a:t=P:problem=w źródle bemol prawdopodnie do każdego dzwięku BB [uwzględnione w kodzie]	!	!	!	!	!
1BB-X	.	1D	.	1f	.
*Xlig	*	*	*	*	*
*lig	*	*	*	*	*
1BB-	.	1F	.	1d	.
*	*	*Xlig	*	*Xlig	*
=6-	=6-	=6-	=6-	=6-	=6-
*	*	*	*	*lig	*
1C	.	1E	.	1c	.
*Xlig	*	*	*	*	*
*lig	*	*lig	*	*	*
1BB-	.	1F	.	1d	.
*	*	*	*	*Xlig	*
=7-	=7-	=7-	=7-	=7-	=7-
*	*	*custos:F	*	*	*
1GG	.	1G	.	1B	.
*Xlig	*	*Xlig	*	*	*
!	!	!LO:LB:g=original	!	!	!
*lig	*	*lig	*	*	*
*	*	*	*	*custos:d	*
1D	.	1F	-ctus	2A/	.
!	!	!	!	!LO:LB:g=original	!
.	.	.	.	1d\	.
=8-	=8-	=8-	=8-	=8-	=8-
1AA	-ctus	1E	.	.	.
.	.	.	.	2c/	.
*Xlig	*	*Xlig	*	*	*
*custos:C	*	*	*	*	*
!LO:TX:a:t=P:problem=w źródle fermata bez kropki	!	!LO:TX:a:t=P:problem=w źródle fermata bez kropki	!	!	!
0D;>	.	0D;>	.	0d;<	-ctus
=9-	=9-	=9-	=9-	=9-	=9-
.	.	.	.	.	.
!LO:LB:g=original	!	!	!	!	!
*lig	*	*lig	*	*lig	*
1C	San-	1G	San-	1e	San-
=10-	=10-	=10-	=10-	=10-	=10-
1F	.	1A	.	1c	.
*Xlig	*	*Xlig	*	*Xlig	*
*	*	*lig	*	*lig	*
0D	.	1F	.	1d	.
=11-	=11-	=11-	=11-	=11-	=11-
.	.	1A	.	1f	.
*lig	*	*Xlig	*	*Xlig	*
*	*	*lig	*	*	*
1C	.	1c	.	1e	.
=12-	=12-	=12-	=12-	=12-	=12-
1G	.	1B	.	2d/	.
.	.	.	.	2e/	.
*Xlig	*	*Xlig	*	*	*
*lig	*	*	*	*	*
1F	.	1A	.	1f	.
=13-	=13-	=13-	=13-	=13-	=13-
*	*	*	*	*lig	*
1G	.	1B	.	1d	.
*Xlig	*	*	*	*	*
*lig	*	*	*	*	*
1E	-ctus	1c	.	1e	.
*	*	*	*	*Xlig	*
=14-	=14-	=14-	=14-	=14-	=14-
*	*	*	*	*custos:F	*
!LO:N:vis=1	!	!	!	!	!
0D;;	.	0d;<	-ctus	0A;>	-ctus
*Xlig	*	*	*	*	*
!	!	!	!	!LO:LB:g=original	!
=15-	=15-	=15-	=15-	=15-	=15-
*lig	*	*lig	*	*lig	*
1D	San-	1d	San-	1F	San-
*	*	*custos:c	*	*	*
1GG	.	1B	.	1G	.
*Xlig	*	*Xlig	*	*Xlig	*
!	!	!LO:LB:g=original	!	!	!
=16-	=16-	=16-	=16-	=16-	=16-
*lig	*	*lig	*	*lig	*
1AA	.	1c	.	1E	.
1FF	.	1A	.	1F	.
*Xlig	*	*Xlig	*	*Xlig	*
=17-	=17-	=17-	=17-	=17-	=17-
*lig	*	*lig	*	*lig	*
1C	.	1c	.	1E	.
1FF	.	1A	.	1F	.
*Xlig	*	*Xlig	*	*Xlig	*
=18-	=18-	=18-	=18-	=18-	=18-
*lig	*	*lig	*	*lig	*
1F	.	1F	.	1A	.
*custos:FF	*	*	*	*	*
1C	.	1E	.	1G	.
*Xlig	*	*Xlig	*	*Xlig	*
!LO:LB:g=original	!	!	!	!	!
=19-	=19-	=19-	=19-	=19-	=19-
*lig	*	*lig	*	*	*
1FF	.	1F	.	1A	.
1GG	.	1D	.	1B	.
*Xlig	*	*Xlig	*	*	*
=20-	=20-	=20-	=20-	=20-	=20-
*lig	*	*lig	*	*	*
1AA	.	1A	.	1c	.
1D	.	1F	.	1d	.
*Xlig	*	*Xlig	*	*	*
=21-	=21-	=21-	=21-	=21-	=21-
*	*	*lig	*	*lig	*
0BB-	.	1D	.	1f	.
.	.	1F	.	1d	.
*	*	*Xlig	*	*Xlig	*
=22-	=22-	=22-	=22-	=22-	=22-
*lig	*	*	*	*lig	*
1C	.	1E	.	1c	.
*	*	*lig	*	*	*
1BB-	.	1F	.	1d	.
*Xlig	*	*	*	*Xlig	*
=23-	=23-	=23-	=23-	=23-	=23-
1GG	.	1G	.	1B	.
*	*	*Xlig	*	*	*
*	*	*lig	*	*	*
1D	.	1F	-ctus	2A/	.
*	*	*	*	*custos:c	*
.	.	.	.	1d\	-ctus
=24-	=24-	=24-	=24-	=24-	=24-
1AA	-ctus	1E	.	.	.
!	!	!	!	!LO:LB:g=original	!
.	.	.	.	2c/	.
*	*	*Xlig	*	*	*
1D	.	1D	.	1d	.
=25-	=25-	=25-	=25-	=25-	=25-
*lig	*	*	*	*lig	*
1C	do-	1G	do-	1e	do-
*	*	*lig	*	*	*
1FF	.	1A	.	1c	.
*Xlig	*	*	*	*Xlig	*
=26-	=26-	=26-	=26-	=26-	=26-
*	*	*custos:G	*	*	*
1BB-	-mi-	1F	.	1d	-mi-
*	*	*Xlig	*	*	*
!	!	!LO:LB:g=original	!	!	!
1BB-	-nus	1G	-mi-	1d	-nus
=27-	=27-	=27-	=27-	=27-	=27-
!LO:TX:t=P:global:problem=kreska oddechu na różnych liniach [rozdzielacz słów / znak oddechu]	!	!	!	!	!
1AA,<	de-	1A	-nus	1c	de-
*	*	*lig	*	*	*
1A	.	1c	de-	1f	-us
=28-	=28-	=28-	=28-	=28-	=28-
*custos:A	*	*	*	*	*
1G	-us	1B	.	1d	.
*	*	*Xlig	*	*	*
!LO:LB:g=original	!	!	!	!	!
1A	.	1A	-us	2c/	.
.	.	.	.	1A/	sab-
=29-	=29-	=29-	=29-	=29-	=29-
1E	Sab-	1B	sab-	.	.
.	.	.	.	2G/	.
1A	-ba-	1c	-ba-	1A	-ba-
=30-	=30-	=30-	=30-	=30-	=30-
*	*	*	*	*custos:F	*
!	!	!LO:N:vis=1	!	!	!
0D;>	-oth	0d;<	-oth	0A;>	-oth
!	!	!	!	!LO:LB:g=original	!
=31-	=31-	=31-	=31-	=31-	=31-
1D	Ple-	1d	Ple-	1F	Ple-
1GG	-ni	1B	-ni	1G	-ni
=32-	=32-	=32-	=32-	=32-	=32-
1AA	su(n)t	1c	su(n)t	1E	sunt
1FF	ce-	1A	ce-	1F	ce-
=33-	=33-	=33-	=33-	=33-	=33-
*lig	*	*	*	*	*
1C	-li	1c	-li	1E	-li
*	*	*custos:F	*	*	*
1FF	et	1A	et	1F	et
*Xlig	*	*	*	*	*
!	!	!LO:LB:g=original	!	!	!
=34-	=34-	=34-	=34-	=34-	=34-
*lig	*	*lig	*	*lig	*
1F	ter-	1F	.	1A	ter-
1C	.	1E	.	1G	.
*Xlig	*	*Xlig	*	*Xlig	*
=35-	=35-	=35-	=35-	=35-	=35-
*lig	*	*	*	*	*
1FF	.	1F	ter-	1A	.
*custos:AA	*	*	*	*	*
1GG	.	1D	-ra	1B	-ra
*Xlig	*	*	*	*	*
!LO:LB:g=original	!	!	!	!	!
=36-	=36-	=36-	=36-	=36-	=36-
*lig	*	*	*	*	*
1AA	-ra	1A	glo-	1c	glo-
1D	.	1F	-ri-	1d	-ri-
*Xlig	*	*	*	*	*
=37-	=37-	=37-	=37-	=37-	=37-
*	*	*	*	*lig	*
1BB-	glo-	1D	-a	1f	-a
1BB-	-ri-	1F	tu-	1d	.
*	*	*	*	*Xlig	*
=38-	=38-	=38-	=38-	=38-	=38-
*	*	*lig	*	*	*
1C	-a	1E	.	1c	tu-
*lig	*	*	*	*	*
*	*	*	*	*custos:B	*
1BB-	tu-	1F	.	1d	.
*	*	*Xlig	*	*	*
!	!	!	!	!LO:PB:g=original	!
=39-	=39-	=39-	=39-	=39-	=39-
1GG	.	1G	.	1B	.
*Xlig	*	*	*	*	*
*lig	*	*lig	*	*	*
1D	.	1F	.	2A/	.
.	.	.	.	1d\	.
=40-	=40-	=40-	=40-	=40-	=40-
1AA	.	1E	.	.	.
.	.	.	.	2c/	.
*Xlig	*	*Xlig	*	*	*
0D;>	-a	0D;>	-a	0d;<	-a
=41-	=41-	=41-	=41-	=41-	=41-
.	.	.	.	.	.
*	*	*custos:A	*	*	*
*	*	*	*	*lig	*
1C	O-	1G	O-	1e	O-
!	!	!LO:LB:g=original	!	!	!
=42-	=42-	=42-	=42-	=42-	=42-
*	*	*lig	*	*	*
1F	.	1A	.	1c	.
*	*	*	*	*Xlig	*
1D	.	1F	.	1d	-san-
*	*	*Xlig	*	*	*
=43-	=43-	=43-	=43-	=43-	=43-
*lig	*	*lig	*	*	*
1D	.	1A	.	1f	.
1C	.	1c	.	1e	.
*Xlig	*	*Xlig	*	*	*
=44-	=44-	=44-	=44-	=44-	=44-
*lig	*	*	*	*	*
1G	.	1B	.	2d/	.
.	.	.	.	2e/	.
*custos:G	*	*	*	*	*
*	*	*lig	*	*	*
1F	.	1A	.	1f	-na
*Xlig	*	*	*	*	*
!LO:PB:g=original	!	!	!	!	!
=45-	=45-	=45-	=45-	=45-	=45-
*	*	*	*	*custos:e	*
1G	-san-	1B	.	1d	.
*lig	*	*Xlig	*	*	*
!	!	!	!	!LO:LB:g=original	!
1E	-na	1c	-ſan-	1e	.
=46-	=46-	=46-	=46-	=46-	=46-
1D	.	1d	-na	1A	.
*Xlig	*	*	*	*	*
1D	in	1d	in	1F	in
=47-	=47-	=47-	=47-	=47-	=47-
1GG	ex-	1B	ex-	1G	ex-
*lig	*	*lig	*	*	*
1AA	-cel-	1c	-cel-	1E	-cel-
=48-	=48-	=48-	=48-	=48-	=48-
1FF	.	1A	.	1F	.
*Xlig	*	*Xlig	*	*	*
*lig	*	*lig	*	*	*
1C	.	1c	.	1E	.
=49-	=49-	=49-	=49-	=49-	=49-
1FF	.	1A	.	1F	.
*Xlig	*	*Xlig	*	*	*
*lig	*	*lig	*	*lig	*
1F	.	1F	.	1A	.
=50-	=50-	=50-	=50-	=50-	=50-
*	*	*custos:F	*	*	*
1C	.	1E	.	1G	.
*Xlig	*	*Xlig	*	*Xlig	*
!	!	!LO:LB:g=original	!	!	!
*lig	*	*lig	*	*	*
1FF	.	1F	.	1A	.
=51-	=51-	=51-	=51-	=51-	=51-
1GG	.	1D	.	1B	.
*Xlig	*	*Xlig	*	*	*
*lig	*	*	*	*	*
1AA	.	1A	.	1c	.
=52-	=52-	=52-	=52-	=52-	=52-
1D	.	1F	.	1d	.
*Xlig	*	*	*	*	*
*	*	*	*	*custos:d	*
0BB-	.	1D	.	1f	.
!	!	!	!	!LO:LB:g=original	!
=53-	=53-	=53-	=53-	=53-	=53-
.	.	1F	.	1d	.
*custos:B	*	*	*	*	*
1C	.	1E	.	1c	.
!LO:LB:g=original	!	!	!	!	!
=54-	=54-	=54-	=54-	=54-	=54-
*lig	*	*	*	*	*
1BB-	.	1F	.	1d	.
1GG	.	1G	.	1B	.
*Xlig	*	*	*	*	*
=55-	=55-	=55-	=55-	=55-	=55-
*lig	*	*lig	*	*	*
1D	-sis	1F	-sis	2A/	.
.	.	.	.	1d	.
1AA	.	1E	.	.	.
.	.	.	.	2c/	.
*Xlig	*	*Xlig	*	*	*
=56-	=56-	=56-	=56-	=56-	=56-
0D;>	.	0D;>	.	0d;>	-sis
==	==	==	==	==	==
*-	*-	*-	*-	*-	*-
!!!system-decoration: [(s1,s2,s3)]
!!!RDF**kern: > = above
!!!RDF**kern: < = below
!!!RDF**kern: | = vertical stroke
!!!RDF**kern: N = linked
!!!RDF**kern: i = editorial accidental
!!!RDF**kern: l = terminal long
!!!ENC: Andrzej Gręziak
!!!END: 2022-01-03
!!!EED: Wojciech Jakubiak-Danek
!!!EEV: 2022-01-04
!!!YEC: Copyright 2022 Narodowy Instytut Fryderyka Chopina (https://polishscores.org)
!!!YEM: License CC-BY-4.0 (https://creativecommons.org/licenses/by/4.0)
